map_marker_monochrome/openmoji_openstreetmap.svg

<svg xmlns="http://www.w3.org/2000/svg" width="24" height="24" viewBox="0 0 24 24"> <g transform="translate(0.0 0.161507692669403) scale(0.46327253518308786)">
  
  <g
     id="line-supplement"
     transform="translate(-11,-11)">
    <path
       fill="none"
       stroke="#000"
       stroke-linecap="round"
       stroke-linejoin="round"
       stroke-width="2"
       d="m 21,13 -2,5 5,2 2,9 -5,5 2,3 -3,2 v 1 l 5,7 4,-2 m 5.5,11 1.5,-3 3,-2 7,4 5,-1 v -4 l -2,-2 1.5,-3.5"
       id="path2" />
  </g>
  <g
     id="line"
     transform="translate(-11,-11)">
    <path
       fill="none"
       stroke="#000"
       stroke-linecap="round"
       stroke-linejoin="round"
       stroke-miterlimit="10"
       stroke-width="2"
       d="m 59.5371,35.0666 c 4.3067,-6.5674 2.3264,-15.2885 -4.4231,-19.479 -6.7495,-4.1905 -15.7124,-2.2637 -20.0191,4.3037 -4.3067,6.5675 -2.3264,15.2885 4.4231,19.479 6.7495,4.1905 15.7124,2.2637 20.0191,-4.3037 z"
       id="path5" />
    <path
       fill="none"
       stroke="#000"
       stroke-linecap="round"
       stroke-linejoin="round"
       stroke-miterlimit="10"
       stroke-width="2"
       d="m 56.6385,33.2669 c 3.2853,-5.0098 1.7748,-11.6625 -3.3739,-14.8591 -5.1487,-3.1966 -11.9858,-1.7267 -15.2711,3.2831 -3.2853,5.0098 -1.7747,11.6624 3.374,14.8591 5.1487,3.1966 11.9858,1.7267 15.271,-3.2831 z"
       id="path7" />
    <path
       fill="none"
       stroke="#000"
       stroke-linecap="round"
       stroke-linejoin="round"
       stroke-miterlimit="10"
       stroke-width="2"
       d="m 34.777,41.444 4.3636,2.709 -10.3955,15.853 c -0.7427,1.1326 -2.3216,1.4442 -3.5265,0.6962 -1.205,-0.7481 -1.5798,-2.2726 -0.8371,-3.4053 z"
       id="path9" />
    <path
       fill="none"
       stroke="#000"
       stroke-linecap="round"
       stroke-linejoin="round"
       stroke-width="2"
       d="M 40,12.3333 36,12 25,13 12,12 V 24 L 12.9967,35.04 12,47 v 12 l 9,0.6923 M 54.2656,12.4779 60,12 v 4.5 M 59.375,39.5 60,47 v 12 l -12,1 -12,-1 -3.5,0.3182"
       id="path11" />
  </g>
</g></svg>

<svg xmlns="http://www.w3.org/2000/svg" width="24" height="24" viewBox="0 0 24 24"> <g transform="scale(0.333333333)">  <g id="line-supplement">
    <path fill="none" stroke="#000" stroke-linecap="round" stroke-linejoin="round" stroke-width="2" d="M21 13L19 18L24 20L26 29L21 34L23 37L20 39V40L25 47L29 45M34.5 56L36 53L39 51L46 55L51 54V50L49 48L50.5 44.5"/>
  </g>
  <g id="line">
    <path fill="none" stroke="#000" stroke-linecap="round" stroke-linejoin="round" stroke-miterlimit="10" stroke-width="2" d="M59.5371 35.0666C63.8438 28.4992 61.8635 19.7781 55.114 15.5876C48.3645 11.3971 39.4016 13.3239 35.0949 19.8913C30.7882 26.4588 32.7685 35.1798 39.518 39.3703C46.2675 43.5608 55.2304 41.634 59.5371 35.0666Z"/>
    <path fill="none" stroke="#000" stroke-linecap="round" stroke-linejoin="round" stroke-miterlimit="10" stroke-width="2" d="M56.6385 33.2669C59.9238 28.2571 58.4133 21.6044 53.2646 18.4078C48.1159 15.2112 41.2788 16.6811 37.9935 21.6909C34.7082 26.7007 36.2188 33.3533 41.3675 36.55C46.5162 39.7466 53.3533 38.2767 56.6385 33.2669Z"/>
    <path fill="none" stroke="#000" stroke-linecap="round" stroke-linejoin="round" stroke-miterlimit="10" stroke-width="2" d="M34.777 41.444L39.1406 44.153L28.7451 60.006C28.0024 61.1386 26.4235 61.4502 25.2186 60.7022C24.0136 59.9541 23.6388 58.4296 24.3815 57.2969L34.777 41.444Z"/>
    <path fill="none" stroke="#000" stroke-linecap="round" stroke-linejoin="round" stroke-width="2" d="M40 12.3333L36 12L25 13L12 12V24L12.9967 35.04L12 47V59L21 59.6923M54.2656 12.4779L60 12V16.5M59.375 39.5L60 47V59L48 60L36 59L32.5 59.3182"/>
  </g></g></svg>
